X:243
T:Le Solitaire. JaW.243
M:6/8
L:1/8
Q:3/8=120
S:James Winder Ms, Lancashire, 1835-41
R:.jig
O:England
A:Wyresdale,Lancashire
N:With longways country dance instructions
Z:vmp.Chris Partington, Aug 2004
K:C
g|e2e c2g|(e3 c2) g|e2e edc|d3-d2g|!
e2e c2g|(^f3 d2)d|g2g ag^f|g3-g2:|!
|:g|e2e e2e|e2a e2e|ba^g fed|c2e c2e|!
e2e edc|Bag g2f|e2e edc|g3-g2f|!
e3-ede|f3-fef|d2d dgg|e2c gcd|!
e3-ede|”_bar not in MS”f3-fef|d2″qu”d dgB|c3-c2:|

